images_sukapura_svg/cmd/sc_resetattributes.svg

<svg viewBox="0 0 16 16" xmlns="http://www.w3.org/2000/svg"><path d="m.46679688 15c-.25822052 0-.46679688.208576-.46679688.466797v.06641c0 .258217.20857636.466793.46679688.466793h6.82031252l-.8300782-.830078c-.0522944-.052265-.0935885-.111916-.1367187-.169922z" fill="#4b4b4f"/><g fill="#e68497" transform="matrix(.74912231 0 0 .74967327 -1.942593 -1.242485)"><path d="m16.518661 20.388672 6.175428-6.674056-2.646137-2.244388-6.365228 6.086413z"/><path d="m15.549003 21.813366c.189562 0 .378184-.07172.523438-.216797l.457939-1.190319-2.626426-2.849609-.495049 1.159069c-.290506.290127-.290506.756747 0 1.046875l1.614708 1.833984c.145254.145064.335828.216797.52539.216797z" fill="#e7acbc"/><path d="m13.064368 6.6764087-5.0107203 4.9377123-.5496625 1.486547c-.018751.383229.1179516.517763.3355761.735265l1.2092718 1.375c.6936168.4627 1.2734849.293285 2.0637249.186059l4.392791-4.712486.0081-1.8372671z" fill="none" stroke="#b6496c" transform="matrix(1.3348955 0 0 1.3339144 2.593158 1.657369)"/><path d="m15.089203 10.440958c.108813.10875-4.271893 4.551726-4.129888 4.551726s-1.0603155.121934-.951503.01317l.433594-.951172-.0098-.01172 4.625537-5.0044387z" fill="#ab4263" transform="matrix(1.3348955 0 0 1.3339144 2.593158 1.657369)"/><path d="m14.357108 18.013368 5.721784-5.630127 2.120144 1.873623" fill="none" stroke="#f398b3" stroke-width="1.334405"/></g><path d="m8.578125 0-7.578125 14.021484h2.3203125l1.6953125-3.273437h2.2363281l1.9550781-1.9550782h-3.1796874l3.0039062-5.8066407.0585938.0078125.5996093 5.3164063 1.9374999-1.9375-.871094-6.3730469z" fill="#4b4b4f"/></svg>

<?xml version="1.0" encoding="UTF-8" standalone="no"?>
<svg
   xmlns:dc="http://purl.org/dc/elements/1.1/"
   xmlns:cc="http://creativecommons.org/ns#"
   xmlns:rdf="http://www.w3.org/1999/02/22-rdf-syntax-ns#"
   xmlns:svg="http://www.w3.org/2000/svg"
   xmlns="http://www.w3.org/2000/svg"
   xmlns:sodipodi="http://sodipodi.sourceforge.net/DTD/sodipodi-0.dtd"
   xmlns:inkscape="http://www.inkscape.org/namespaces/inkscape"
   viewBox="0 0 16 16"
   version="1.1"
   id="svg26089"
   sodipodi:docname="sc_resetattributes.svg"
   inkscape:version="0.92.3 (2405546, 2018-03-11)">
  <metadata
     id="metadata26095">
    <rdf:RDF>
      <cc:Work
         rdf:about="">
        <dc:format>image/svg+xml</dc:format>
        <dc:type
           rdf:resource="http://purl.org/dc/dcmitype/StillImage" />
      </cc:Work>
    </rdf:RDF>
  </metadata>
  <defs
     id="defs26093" />
  <sodipodi:namedview
     pagecolor="#ffffff"
     bordercolor="#666666"
     borderopacity="1"
     objecttolerance="10"
     gridtolerance="10"
     guidetolerance="10"
     inkscape:pageopacity="0"
     inkscape:pageshadow="2"
     inkscape:window-width="1366"
     inkscape:window-height="716"
     id="namedview26091"
     showgrid="true"
     inkscape:zoom="22.627417"
     inkscape:cx="10.089745"
     inkscape:cy="-0.029128689"
     inkscape:window-x="-8"
     inkscape:window-y="-8"
     inkscape:window-maximized="1"
     inkscape:current-layer="svg26089"
     inkscape:snap-global="false">
    <inkscape:grid
       type="xygrid"
       id="grid26640" />
  </sodipodi:namedview>
  <path
     d="m.46679688 15c-.25822052 0-.46679688.208576-.46679688.466797v.06641c0 .258217.20857636.466793.46679688.466793h6.82031252l-.8300782-.830078c-.0522944-.052265-.0935885-.111916-.1367187-.169922z"
     fill="#69696e"
     id="path26075"
     style="fill:#4b4b4f;fill-opacity:1" />
  <g
     fill="#e68497"
     transform="matrix(.74912231 0 0 .74967327 -1.942593 -1.242485)"
     id="g26087">
    <path
       d="m 16.518661,20.388672 6.175428,-6.674056 -2.646137,-2.244388 -6.365228,6.086413 z"
       id="path26077"
       inkscape:connector-curvature="0"
       sodipodi:nodetypes="ccccc" />
    <path
       d="m 15.549003,21.813366 c 0.189562,0 0.378184,-0.07172 0.523438,-0.216797 L 16.53038,20.40625 13.903954,17.556641 13.408905,18.71571 c -0.290506,0.290127 -0.290506,0.756747 0,1.046875 l 1.614708,1.833984 c 0.145254,0.145064 0.335828,0.216797 0.52539,0.216797 z"
       id="path26079"
       inkscape:connector-curvature="0"
       style="fill:#e7acbc"
       sodipodi:nodetypes="sccccccs" />
    <path
       d="M 13.064368,6.6764087 8.0536477,11.614121 7.5039852,13.100668 c -0.018751,0.383229 0.1179516,0.517763 0.3355761,0.735265 l 1.2092718,1.375 c 0.6936168,0.4627 1.2734849,0.293285 2.0637249,0.186059 l 4.392791,-4.712486 0.0081,-1.8372671 z"
       transform="matrix(1.3348955,0,0,1.3339144,2.593158,1.657369)"
       id="path26081"
       inkscape:connector-curvature="0"
       style="fill:none;stroke:#b6496c"
       sodipodi:nodetypes="ccccccccc" />
    <path
       d="m 15.089203,10.440958 c 0.108813,0.10875 -4.271893,4.551726 -4.129888,4.551726 0.142005,0 -1.0603155,0.121934 -0.951503,0.01317 l 0.433594,-0.951172 -0.0098,-0.01172 4.625537,-5.0044387 z"
       transform="matrix(1.3348955,0,0,1.3339144,2.593158,1.657369)"
       id="path26083"
       inkscape:connector-curvature="0"
       style="fill:#ab4263"
       sodipodi:nodetypes="csccccc" />
    <path
       d="m 14.357108,18.013368 5.721784,-5.630127 2.120144,1.873623"
       id="path26085"
       inkscape:connector-curvature="0"
       style="fill:none;stroke:#f398b3;stroke-width:1.33440495"
       sodipodi:nodetypes="ccc" />
  </g>
  <path
     style="font-style:normal;font-weight:normal;font-size:19.7227726px;line-height:1.25;font-family:sans-serif;letter-spacing:0px;word-spacing:0px;fill:#4b4b4f;fill-opacity:1;stroke:none;stroke-width:0.49306932"
     d="M 8.578125 0 L 1 14.021484 L 3.3203125 14.021484 L 5.015625 10.748047 L 7.2519531 10.748047 L 9.2070312 8.7929688 L 6.0273438 8.7929688 L 9.03125 2.9863281 L 9.0898438 2.9941406 L 9.6894531 8.3105469 L 11.626953 6.3730469 L 10.755859 0 L 8.578125 0 z "
     id="text26644" />
</svg>
